X: 1
T:Paddy Ryan's Dream
R:reel
H:Flute version. See also #143.
D:Matt Molloy: Stony Steps
Z:id:hn-reel-342
M:C|
K:Ador
ae~e2 cABA|EB~B2 GAAG|~A3E cEAB|BAAG ~A3e|
aece cABA|EB~B2 G2AG|~A3E cEAB|BAAG ~A3e|
ae~e2 cABA|EB~B2 GAAG|~A3E cEAB|BAAG ~A3B|
AGEG cABA|EB~B2 GAAG|~A3E cEAB|BAAG ~A3d||
ea~a2 aecA|dggf gd (3Bcd|eaag aged|edcB BAAe|
~a3g aecA|g2 (3fga gdBG|Ac (3Bcd cdef|edcB ~A3d|
~a3g aecA|dggf gd (3Bcd|~e3a aged|edcB BAAe|
~a3g aecA|g2 (3fga gdBG|AG (3Bcd cdef|edcB ~A3e||
